site/web/app/themes/cedreo-designer/assets/icons/arrow.svg

<?xml version="1.0" encoding="utf-8"?>
<!-- Generated by IcoMoon.io -->
<!DOCTYPE svg PUBLIC "-//W3C//DTD SVG 1.1//EN" "http://www.w3.org/Graphics/SVG/1.1/DTD/svg11.dtd">
<svg version="1.1" xmlns="http://www.w3.org/2000/svg" xmlns:xlink="http://www.w3.org/1999/xlink" width="32" height="32" viewBox="0 0 32 32">
<path fill="#000" d="M16 0c-8.8 0-16 7.2-16 16s7.2 16 16 16 16-7.2 16-16-7.2-16-16-16zM16 30.7c-8.1 0-14.7-6.6-14.7-14.7s6.6-14.7 14.7-14.7 14.7 6.6 14.7 14.7-6.6 14.7-14.7 14.7z"></path>
<path fill="#000" d="M16.6 23.2v-15.5h-1.2v15.5l-6.2-6.2-1 0.9 7.8 7.8 7.8-7.8-1-0.9z"></path>
</svg>

<svg xmlns="http://www.w3.org/2000/svg" width="32" height="32" viewBox="0 0 32 32"><path d="M16 0C7.2 0 0 7.2 0 16s7.2 16 16 16 16-7.2 16-16S24.8 0 16 0zm0 30.7C7.9 30.7 1.3 24.1 1.3 16S7.9 1.3 16 1.3 30.7 7.9 30.7 16 24.1 30.7 16 30.7z"/><path d="M16.6 23.2V7.7h-1.2v15.5L9.2 17l-1 .9 7.8 7.8 7.8-7.8-1-.9z"/></svg>
